Simply-Green-Circles/scalable/places/folder-bookmark.svg

<svg xmlns="http://www.w3.org/2000/svg" width="48" height="48" viewBox="0 0 12.7 12.7"><path d="M6.34.07a6.29 6.29 0 0 0-6.29 6.3 6.29 6.29 0 0 0 6.3 6.28 6.29 6.29 0 0 0 6.28-6.29A6.29 6.29 0 0 0 6.34.07zm-.01.94a5.4 5.4 0 0 1 5.4 5.4 5.4 5.4 0 0 1-5.4 5.41 5.4 5.4 0 0 1-5.41-5.4A5.4 5.4 0 0 1 6.32 1zm-1.35.72c-.62 0-1.08.39-1.26.73-.18.35-.17.69-.17.69v7.41l2.83-1.41 2.82 1.41V3.15s.01-.33-.16-.68a1.42 1.42 0 0 0-1.25-.74H4.98zm1.4 1c.15 0 .65 1.27.78 1.36.13.09 1.47.18 1.52.33.05.15-.99 1.01-1.04 1.16-.05.15.29 1.47.16 1.56-.13.09-1.27-.63-1.42-.63-.16 0-1.3.72-1.43.63-.12-.1.2-1.4.16-1.56-.05-.15-1.09-1.01-1.04-1.16.05-.15 1.4-.24 1.52-.33.13-.1.63-1.35.79-1.35z" fill="#2ca02c"/></svg>

<?xml version="1.0" encoding="UTF-8" standalone="no"?>
<svg
   xmlns:dc="http://purl.org/dc/elements/1.1/"
   xmlns:cc="http://creativecommons.org/ns#"
   xmlns:rdf="http://www.w3.org/1999/02/22-rdf-syntax-ns#"
   xmlns:svg="http://www.w3.org/2000/svg"
   xmlns="http://www.w3.org/2000/svg"
   xmlns:sodipodi="http://sodipodi.sourceforge.net/DTD/sodipodi-0.dtd"
   xmlns:inkscape="http://www.inkscape.org/namespaces/inkscape"
   width="48"
   height="48"
   viewBox="0 0 12.7 12.7"
   version="1.1"
   id="svg4"
   sodipodi:docname="folder-bookmark.svg"
   inkscape:version="0.92.4 (5da689c313, 2019-01-14)">
  <metadata
     id="metadata10">
    <rdf:RDF>
      <cc:Work
         rdf:about="">
        <dc:format>image/svg+xml</dc:format>
        <dc:type
           rdf:resource="http://purl.org/dc/dcmitype/StillImage" />
        <dc:title></dc:title>
      </cc:Work>
    </rdf:RDF>
  </metadata>
  <defs
     id="defs8" />
  <sodipodi:namedview
     pagecolor="#ffffff"
     bordercolor="#666666"
     borderopacity="1"
     objecttolerance="10"
     gridtolerance="10"
     guidetolerance="10"
     inkscape:pageopacity="0"
     inkscape:pageshadow="2"
     inkscape:window-width="1085"
     inkscape:window-height="480"
     id="namedview6"
     showgrid="false"
     inkscape:zoom="4.9166667"
     inkscape:cx="2.1355932"
     inkscape:cy="24"
     inkscape:window-x="0"
     inkscape:window-y="25"
     inkscape:window-maximized="0"
     inkscape:current-layer="svg4" />
  <path
     d="M 6.34,0.07 A 6.29,6.29 0 0 0 0.05,6.37 6.29,6.29 0 0 0 6.35,12.65 6.29,6.29 0 0 0 12.63,6.36 6.29,6.29 0 0 0 6.34,0.07 Z M 6.33,1.01 a 5.4,5.4 0 0 1 5.4,5.4 5.4,5.4 0 0 1 -5.4,5.41 A 5.4,5.4 0 0 1 0.92000003,6.42 5.4,5.4 0 0 1 6.32,1 Z M 4.98,1.73 C 4.36,1.73 3.9,2.12 3.72,2.46 3.54,2.81 3.55,3.15 3.55,3.15 v 7.41 L 6.38,9.15 9.2,10.56 V 3.15 c 0,0 0.01,-0.33 -0.16,-0.68 A 1.42,1.42 0 0 0 7.79,1.73 Z m 1.4,1 C 6.53,2.73 7.03,4 7.16,4.09 7.29,4.18 8.63,4.27 8.68,4.42 8.73,4.57 7.69,5.43 7.64,5.58 7.59,5.73 7.93,7.05 7.8,7.14 7.67,7.23 6.53,6.51 6.38,6.51 6.22,6.51 5.08,7.23 4.95,7.14 4.83,7.04 5.15,5.74 5.11,5.58 5.06,5.43 4.02,4.57 4.07,4.42 4.12,4.27 5.47,4.18 5.59,4.09 5.72,3.99 6.22,2.74 6.38,2.74 Z"
     id="path2"
     inkscape:connector-curvature="0"
     style="fill:#2ca02c" />
</svg>
